webroot/css/img/new-desgin/la_facebook.svg

<svg width="32" height="32" viewBox="0 0 32 32" fill="none" xmlns="http://www.w3.org/2000/svg">
<g id="la:facebook">
<path id="Vector" d="M16 4C9.384 4 4 9.384 4 16C4 22.616 9.384 28 16 28C22.616 28 28 22.616 28 16C28 9.384 22.616 4 16 4ZM16 6C21.535 6 26 10.465 26 16C26.0024 18.394 25.144 20.709 23.5813 22.5226C22.0187 24.3362 19.856 25.5275 17.488 25.879V18.916H20.336L20.783 16.023H17.488V14.443C17.488 13.243 17.883 12.176 19.006 12.176H20.811V9.652C20.494 9.609 19.823 9.516 18.555 9.516C15.907 9.516 14.355 10.914 14.355 14.1V16.023H11.633V18.916H14.355V25.854C12.0198 25.4696 9.89724 24.2675 8.36669 22.4623C6.83615 20.6572 5.99729 18.3667 6 16C6 10.465 10.465 6 16 6Z" fill="white"/>
</g>
</svg>

<svg width="32" height="32" fill="none" xmlns="http://www.w3.org/2000/svg"><path d="M16 4C9.384 4 4 9.384 4 16s5.384 12 12 12 12-5.384 12-12S22.616 4 16 4Zm0 2c5.535 0 10 4.465 10 10a9.977 9.977 0 0 1-8.512 9.879v-6.963h2.848l.447-2.893h-3.295v-1.58c0-1.2.395-2.267 1.518-2.267h1.805V9.652c-.317-.043-.988-.136-2.256-.136-2.648 0-4.2 1.398-4.2 4.584v1.923h-2.722v2.893h2.722v6.938A9.975 9.975 0 0 1 6 16c0-5.535 4.465-10 10-10Z" fill="#fff"/></svg>
